dist/assets/icons/vk-icon.svg

<svg width="45" height="45" viewBox="0 0 45 45" fill="none" xmlns="http://www.w3.org/2000/svg">
<circle cx="22.5" cy="22.5" r="21.5" fill="white" stroke="#66C05D" stroke-width="2"/>
<path d="M35.8947 28.5466C35.8607 28.478 35.8291 28.4211 35.7997 28.3755C35.3131 27.554 34.3833 26.5456 33.0109 25.3502L32.9819 25.3228L32.9674 25.3094L32.9527 25.2956H32.938C32.3151 24.7389 31.9206 24.3646 31.7554 24.173C31.4532 23.8079 31.3855 23.4384 31.5507 23.064C31.6674 22.7812 32.1057 22.1838 32.8648 21.271C33.264 20.7873 33.5802 20.3997 33.8137 20.1076C35.4978 18.0086 36.228 16.6673 36.004 16.0832L35.917 15.9467C35.8585 15.8645 35.7077 15.7893 35.4646 15.7208C35.221 15.6524 34.9096 15.641 34.5299 15.6866L30.3249 15.7139C30.2568 15.6912 30.1595 15.6934 30.0328 15.7208C29.9062 15.7482 29.8429 15.762 29.8429 15.762L29.7697 15.7962L29.7116 15.8374C29.6629 15.8647 29.6094 15.9126 29.5509 15.981C29.4928 16.0492 29.4441 16.1293 29.4053 16.2205C28.9475 17.3248 28.4269 18.3514 27.8428 19.3004C27.4826 19.8663 27.1518 20.3567 26.8497 20.7719C26.548 21.1871 26.2949 21.4929 26.0907 21.6889C25.8861 21.8852 25.7015 22.0424 25.5357 22.1611C25.3702 22.2799 25.2438 22.3301 25.1563 22.3118C25.0686 22.2934 24.986 22.2752 24.9078 22.257C24.7716 22.1748 24.6621 22.063 24.5795 21.9216C24.4965 21.7802 24.4407 21.6022 24.4115 21.3877C24.3824 21.1731 24.3653 20.9885 24.3603 20.8333C24.3558 20.6783 24.3579 20.4591 24.3678 20.1762C24.3779 19.8932 24.3824 19.7017 24.3824 19.6013C24.3824 19.2545 24.3896 18.8781 24.4041 18.472C24.4188 18.0659 24.4308 17.7441 24.4407 17.5071C24.4507 17.2698 24.4553 17.0188 24.4553 16.7541C24.4553 16.4895 24.4381 16.2819 24.4041 16.1313C24.3706 15.9808 24.3191 15.8348 24.2512 15.6932C24.1829 15.5518 24.083 15.4424 23.9519 15.3647C23.8205 15.2871 23.6572 15.2256 23.4628 15.1798C22.9468 15.0704 22.2898 15.0112 21.4915 15.0019C19.681 14.9837 18.5177 15.0933 18.0018 15.3306C17.7974 15.4309 17.6124 15.5678 17.4471 15.7411C17.2718 15.9419 17.2473 16.0515 17.3739 16.0696C17.958 16.1516 18.3715 16.3478 18.6149 16.6581L18.7026 16.8225C18.7708 16.9411 18.8389 17.1511 18.9071 17.4522C18.9752 17.7533 19.0191 18.0863 19.0384 18.4512C19.087 19.1175 19.087 19.6878 19.0384 20.1623C18.9897 20.6369 18.9437 21.0064 18.8998 21.2711C18.8558 21.5358 18.7902 21.7502 18.7026 21.9144C18.6149 22.0787 18.5565 22.1791 18.5273 22.2155C18.4981 22.2519 18.4738 22.2749 18.4544 22.2839C18.3279 22.3294 18.1963 22.3525 18.0601 22.3525C17.9237 22.3525 17.7583 22.2886 17.5637 22.1608C17.3691 22.0329 17.1672 21.8574 16.9578 21.6337C16.7485 21.4101 16.5125 21.0975 16.2495 20.6961C15.9868 20.2946 15.7143 19.8201 15.432 19.2725L15.1984 18.8755C15.0524 18.62 14.8529 18.2481 14.5998 17.7599C14.3466 17.2716 14.1228 16.7993 13.9282 16.343C13.8504 16.1514 13.7335 16.0055 13.5778 15.9051L13.5047 15.8639C13.4561 15.8275 13.3782 15.7888 13.2712 15.7475C13.164 15.7063 13.0522 15.6768 12.9353 15.6586L8.93465 15.6859C8.52583 15.6859 8.24844 15.7727 8.10238 15.9461L8.04393 16.0281C8.01473 16.0738 8 16.1468 8 16.2473C8 16.3476 8.0292 16.4709 8.08766 16.6168C8.67168 17.9036 9.3068 19.1446 9.993 20.3401C10.6792 21.5355 11.2755 22.4985 11.7815 23.2281C12.2877 23.9582 12.8036 24.6473 13.3293 25.2951C13.8549 25.943 14.2029 26.3583 14.3731 26.5407C14.5436 26.7235 14.6775 26.8601 14.7748 26.9513L15.1399 27.2798C15.3735 27.4989 15.7166 27.7612 16.1692 28.0669C16.622 28.3727 17.1232 28.6738 17.6731 28.9706C18.2232 29.267 18.8631 29.5088 19.5933 29.6958C20.3233 29.883 21.0338 29.9582 21.725 29.9219H23.4042C23.7447 29.8944 24.0027 29.794 24.1781 29.6207L24.2362 29.5521C24.2752 29.4976 24.3118 29.413 24.3456 29.2991C24.3797 29.1851 24.3967 29.0594 24.3967 28.9227C24.3867 28.5304 24.4186 28.1768 24.4914 27.862C24.5642 27.5473 24.6471 27.31 24.7399 27.1502C24.8326 26.9906 24.9373 26.8558 25.0537 26.7466C25.1704 26.6372 25.2536 26.5709 25.3024 26.548C25.3508 26.5251 25.3895 26.5095 25.4187 26.5001C25.6524 26.4272 25.9273 26.4978 26.244 26.7125C26.5604 26.9269 26.8571 27.1917 27.1347 27.5064C27.4122 27.8214 27.7455 28.1748 28.1348 28.5672C28.5243 28.9596 28.8649 29.2514 29.1568 29.4433L29.4487 29.6076C29.6437 29.7172 29.8968 29.8176 30.2083 29.9088C30.5193 30 30.7918 30.0228 31.0258 29.9772L34.7635 29.9226C35.1332 29.9226 35.4208 29.8652 35.6249 29.7513C35.8293 29.6372 35.9508 29.5116 35.99 29.3749C36.029 29.2381 36.0311 29.0828 35.9974 28.9092C35.9628 28.7361 35.9287 28.6151 35.8947 28.5466Z" fill="#66C05D"/>
</svg>

<svg width="45" height="45" fill="none" xmlns="http://www.w3.org/2000/svg"><circle cx="22.5" cy="22.5" r="21.5" fill="#fff" stroke="#66C05D" stroke-width="2"/><path d="M35.895 28.547a1.776 1.776 0 0 0-.095-.172c-.487-.821-1.417-1.83-2.79-3.025l-.028-.027-.015-.014-.014-.013h-.015c-.623-.557-1.017-.931-1.183-1.123-.302-.365-.37-.735-.204-1.109.116-.283.555-.88 1.314-1.793.399-.484.715-.871.949-1.163 1.684-2.1 2.414-3.44 2.19-4.025l-.087-.136c-.059-.082-.21-.158-.452-.226-.244-.069-.555-.08-.935-.034l-4.205.027a.58.58 0 0 0-.292.007l-.19.041-.073.034-.058.041a.637.637 0 0 0-.161.144.926.926 0 0 0-.146.24 21.765 21.765 0 0 1-1.562 3.08c-.36.565-.691 1.056-.993 1.47-.302.416-.555.722-.76.918-.204.196-.389.353-.554.472-.166.119-.292.17-.38.15l-.248-.054a.936.936 0 0 1-.329-.335 1.432 1.432 0 0 1-.168-.534 5.54 5.54 0 0 1-.05-.555 10.89 10.89 0 0 1 .007-.657c.01-.283.014-.474.014-.575 0-.346.008-.723.022-1.129l.037-.965c.01-.237.014-.488.014-.753s-.017-.472-.05-.623a2.033 2.033 0 0 0-.154-.438.754.754 0 0 0-.3-.328 1.753 1.753 0 0 0-.488-.185c-.516-.11-1.173-.169-1.972-.178-1.81-.018-2.973.091-3.49.329-.204.1-.389.237-.554.41-.175.2-.2.31-.073.329.584.082.998.278 1.24.588l.089.165c.068.118.136.328.204.63.068.3.112.633.131.998a9.988 9.988 0 0 1 0 1.711c-.048.475-.094.844-.138 1.11-.044.264-.11.478-.197.642a2.67 2.67 0 0 1-.176.301.244.244 0 0 1-.073.069 1.157 1.157 0 0 1-.394.069c-.136 0-.302-.064-.496-.192a3.432 3.432 0 0 1-.606-.527 7.08 7.08 0 0 1-.708-.938 16.059 16.059 0 0 1-.818-1.424l-.234-.396a33.36 33.36 0 0 1-.598-1.116c-.253-.488-.477-.96-.672-1.417a.911.911 0 0 0-.35-.438l-.073-.041a1.026 1.026 0 0 0-.234-.117 1.633 1.633 0 0 0-.336-.088l-4 .027c-.41 0-.687.087-.833.26l-.058.082a.42.42 0 0 0-.044.22c0 .1.03.223.088.369a44.014 44.014 0 0 0 1.905 3.723c.686 1.195 1.282 2.159 1.788 2.888.507.73 1.023 1.42 1.548 2.067.526.648.874 1.063 1.044 1.246.17.183.305.32.402.41l.365.329c.233.219.577.481 1.03.787.452.306.953.607 1.503.904.55.296 1.19.538 1.92.725.73.187 1.44.262 2.132.226h1.68c.34-.028.598-.128.773-.301l.058-.069a.88.88 0 0 0 .11-.253 1.31 1.31 0 0 0 .05-.376c-.01-.393.023-.746.095-1.061.073-.315.156-.552.249-.712.093-.16.197-.294.314-.403.116-.11.2-.176.248-.199.049-.023.088-.038.117-.048.233-.073.508-.002.825.212.316.215.613.48.89.794.278.315.611.669 1 1.061.39.393.73.684 1.023.876l.292.165c.195.11.448.21.76.3.31.092.583.115.817.07l3.738-.055c.37 0 .657-.058.86-.172.205-.114.327-.24.366-.376a.997.997 0 0 0 .007-.466 1.633 1.633 0 0 0-.102-.362Z" fill="#66C05D"/></svg>
